X: 06041
T: LAURIE'S JIG
C: Bob McQuillen 6 Nov 82
B: Bob's Note Book 6 #41
%R: jig
Z: 2021 John Chambers <jc:trillian.mit.edu>
M: 6/8
L: 1/8
K: D
D2B, \
| A,2D FED | E2D B,CD | A,2D DFA | G2F EFG |\
| A2d fed | e2g B2d | cBA gfe | d3 :|
|: f2g \
| a2f afa | g2f efg | faf def | e2c ABc |\
| dcd edB | A2d Adf | afd efe | d3 :|
%%begintext align
%% This one is for Laurie Parks
%% of Peterborough, N.H., with
%% love from MAC --
%% o---o
%%endtext

%%sep 1 1 500

%%sep 1 1 500

